src/assets/icons/svg/clock.svg

<svg width="20" height="20" viewBox="0 0 20 20" fill="none" xmlns="http://www.w3.org/2000/svg">
<path d="M20 10C20 11.9739 19.4142 13.8936 18.3057 15.5515C18.0659 15.91 17.5807 16.0065 17.222 15.7668C16.8633 15.5269 16.767 15.0417 17.0067 14.6831C17.9428 13.2829 18.4375 11.6637 18.4375 10C18.4375 5.3476 14.6524 1.5625 10 1.5625C5.3476 1.5625 1.5625 5.3476 1.5625 10C1.5625 14.6524 5.3476 18.4375 10 18.4375C11.5431 18.4375 13.0525 18.0173 14.3648 17.2224C14.7339 16.9989 15.2142 17.1169 15.4378 17.486C15.6613 17.8549 15.5434 18.3353 15.1744 18.5588C13.6179 19.5016 11.8286 20 10 20C7.32895 20 4.81766 18.9598 2.92892 17.0711C1.04019 15.1823 0 12.6711 0 10C0 7.32895 1.04019 4.81766 2.92892 2.92892C4.81766 1.04019 7.32895 0 10 0C12.6711 0 15.1823 1.04019 17.0711 2.92892C18.9598 4.81766 20 7.32895 20 10ZM10.0391 3.125C9.60754 3.125 9.25781 3.47473 9.25781 3.90625V8.647C8.79089 8.91724 8.47656 9.42169 8.47656 10C8.47656 10.8629 9.17618 11.5625 10.0391 11.5625C10.179 11.5625 10.3145 11.5439 10.4436 11.5094L12.514 13.5797C12.6665 13.7323 12.8665 13.8086 13.0664 13.8086C13.2663 13.8086 13.4663 13.7323 13.6188 13.5797C13.924 13.2747 13.924 12.78 13.6188 12.475L11.5485 10.4045C11.5829 10.2754 11.6016 10.1399 11.6016 10C11.6016 9.42169 11.2872 8.91724 10.8203 8.647V3.90625C10.8203 3.47473 10.4706 3.125 10.0391 3.125Z" fill="black"/>
</svg>

<?xml version="1.0" encoding="iso-8859-1"?>
<!-- Generator: Adobe Illustrator 23.1.0, SVG Export Plug-In . SVG Version: 6.00 Build 0)  -->
<svg version="1.1" id="&#x421;&#x43B;&#x43E;&#x439;_1"
	 xmlns="http://www.w3.org/2000/svg" xmlns:xlink="http://www.w3.org/1999/xlink" x="0px" y="0px" viewBox="0 0 20 20"
	 style="enable-background:new 0 0 20 20;" xml:space="preserve">
<path d="M20,10c0,1.974-0.586,3.894-1.694,5.552c-0.24,0.358-0.725,0.455-1.084,0.215c-0.359-0.24-0.455-0.725-0.215-1.084
	c0.936-1.4,1.431-3.019,1.431-4.683c0-4.652-3.785-8.438-8.438-8.438S1.563,5.348,1.563,10S5.348,18.438,10,18.438
	c1.543,0,3.052-0.42,4.365-1.215c0.369-0.224,0.849-0.106,1.073,0.264c0.223,0.369,0.106,0.849-0.263,1.073
	C13.618,19.502,11.829,20,10,20c-2.671,0-5.182-1.04-7.071-2.929C1.04,15.182,0,12.671,0,10c0-2.671,1.04-5.182,2.929-7.071
	C4.818,1.04,7.329,0,10,0c2.671,0,5.182,1.04,7.071,2.929C18.96,4.818,20,7.329,20,10z M10.039,3.125
	c-0.432,0-0.781,0.35-0.781,0.781v4.741C8.791,8.917,8.477,9.422,8.477,10c0,0.863,0.7,1.563,1.563,1.563
	c0.14,0,0.275-0.019,0.405-0.053l2.07,2.07c0.153,0.153,0.352,0.229,0.552,0.229c0.2,0,0.4-0.076,0.552-0.229
	c0.305-0.305,0.305-0.8,0-1.105l-2.07-2.071c0.034-0.129,0.053-0.265,0.053-0.405c0-0.578-0.314-1.083-0.781-1.353V3.906
	C10.82,3.475,10.471,3.125,10.039,3.125z"/>
</svg>
